X: 47
T:Navvie on the Line
% Nottingham Music Database
S:Kevin Briggs
M:4/4
L:1/8
R:Hornpipe
K:G
P:A
Bc|"G"dgfe dcBA|"G"GBDG B2(3BAG|"D7"FADF A2(3AGF|"G"GBDG "D7"B2Bc|
"G"dgfe (3ded(3cBA|"G"GBDG B2AG|"D7"FGAB cdef|"G"g2G2 G2:|
P:B
AG|"D7"FADF A2(3AGF|"G"GBDG B2(3BAG|"D7"FADF A2(3AGF|"G"GDEF "D7"GABc|
"G"dgfe (3ded(3cBA|"G"GBDG B2AG|"D7"FGAB cdef|"G"g2G2 G2:|


